src/app/assets/svg/help.svg

<?xml version="1.0" encoding="UTF-8"?>
<svg width="24px" height="24px" viewBox="0 0 24 24" version="1.1" xmlns="http://www.w3.org/2000/svg" xmlns:xlink="http://www.w3.org/1999/xlink">
    <!-- Generator: Sketch 55.2 (78181) - https://sketchapp.com -->
    <title>Icon / 24px / question-circle-regular</title>
    <desc>Created with Sketch.</desc>
    <g id="Icon-/-24px-/-question-circle-regular" stroke="none" stroke-width="1" fill-rule="evenodd">
        <path d="M12,2.31249995 C6.65011716,2.31249995 2.31249995,6.65167966 2.31249995,12 C2.31249995,17.3514453 6.65011716,21.6875 12,21.6875 C17.3498828,21.6875 21.6875,17.3514453 21.6875,12 C21.6875,6.65167966 17.3498828,2.31249995 12,2.31249995 Z M12,19.8125 C7.68234373,19.8125 4.18749996,16.3191016 4.18749996,12 C4.18749996,7.68378904 7.68249998,4.18749996 12,4.18749996 C16.3160547,4.18749996 19.8125,7.68246092 19.8125,12 C19.8125,16.3175781 16.3191016,19.8125 12,19.8125 Z M16.1892188,9.84374999 C16.1892188,12.4629688 13.3602734,12.5032813 13.3602734,13.4712109 L13.3602734,13.71875 C13.3602734,13.9776172 13.1503906,14.1875 12.8915234,14.1875 L11.1084375,14.1875 C10.8495703,14.1875 10.6396875,13.9776172 10.6396875,13.71875 L10.6396875,13.3805078 C10.6396875,11.9842187 11.6982812,11.4260547 12.4982422,10.9775391 C13.1842188,10.5929687 13.6046484,10.3314062 13.6046484,9.82210936 C13.6046484,9.14843749 12.7453125,8.70128905 12.0505859,8.70128905 C11.1447656,8.70128905 10.7266016,9.13007811 10.1387891,9.87195311 C9.98031249,10.0719531 9.6911328,10.1091016 9.48777342,9.95492186 L8.40089842,9.13078124 C8.20140623,8.97953123 8.15671873,8.69851561 8.29761717,8.49160154 C9.22054686,7.13636716 10.3960937,6.37499997 12.2263281,6.37499997 C14.1431641,6.37499997 16.1892188,7.87124998 16.1892188,9.84374999 L16.1892188,9.84374999 Z M13.640625,16.375 C13.640625,17.2796485 12.9046484,18.015625 12,18.015625 C11.0953516,18.015625 10.359375,17.2796485 10.359375,16.375 C10.359375,15.4703516 11.0953516,14.734375 12,14.734375 C12.9046484,14.734375 13.640625,15.4703516 13.640625,16.375 Z" id="question-circle-regular"></path>
    </g>
</svg>

<svg xmlns="http://www.w3.org/2000/svg" width="24" height="24"><defs/><path fill-rule="evenodd" d="M12 2.312c-5.35 0-9.688 4.34-9.688 9.688A9.687 9.687 0 0012 21.688 9.687 9.687 0 0021.688 12c0-5.348-4.338-9.688-9.688-9.688zm0 17.5A7.808 7.808 0 014.187 12 7.81 7.81 0 0112 4.187 7.81 7.81 0 0119.813 12 7.808 7.808 0 0112 19.813zm4.19-9.968c0 2.619-2.83 2.66-2.83 3.627v.248c0 .259-.21.469-.468.469h-1.784a.469.469 0 01-.468-.47v-.337c0-1.397 1.058-1.955 1.858-2.403.686-.385 1.107-.647 1.107-1.156 0-.674-.86-1.12-1.554-1.12-.906 0-1.324.428-1.912 1.17a.47.47 0 01-.651.083L8.4 9.13a.47.47 0 01-.103-.64c.923-1.355 2.098-2.116 3.928-2.116 1.917 0 3.963 1.496 3.963 3.469zm-2.55 6.531c0 .905-.735 1.64-1.64 1.64-.905 0-1.64-.735-1.64-1.64 0-.905.735-1.64 1.64-1.64.905 0 1.64.735 1.64 1.64z"/></svg>
